docs/img/heart.svg

<svg xmlns="http://www.w3.org/2000/svg" width="24" height="22"><path fill-rule="evenodd" fill="#333" d="M22.207 11.297L11.981 22 1.756 11.297a6.095 6.095 0 010-8.562 5.956 5.956 0 018.48 0l1.745 2.14 1.746-2.14a5.956 5.956 0 018.48 0 6.095 6.095 0 010 8.562zm-6.489-8.212L11.977 6.39 9.236 3.085C7.8 1.62 4.072 1 2.036 4.085.906 5.797.6 7.925 2.036 9.39l9.941 10.611L21.918 9.39a3.805 3.805 0 000-5.305c-1.436-1.465-4.764-2.465-6.2-1z"/></svg>

<svg
        xmlns="http://www.w3.org/2000/svg"
        xmlns:xlink="http://www.w3.org/1999/xlink"
        width="24px" height="22px">
    <path fill-rule="evenodd"  fill="rgb(51, 51, 51)"
          d="M22.207,11.297 L11.981,22.000 L1.756,11.297 C-0.586,8.933 -0.586,5.099 1.756,2.735 C4.097,0.371 7.894,0.371 10.236,2.735 L11.981,4.875 L13.727,2.735 C16.068,0.371 19.865,0.371 22.207,2.735 C24.549,5.099 24.549,8.933 22.207,11.297 ZM15.718,3.085 L11.977,6.390 L9.236,3.085 C7.800,1.620 4.072,1.000 2.036,4.085 C0.906,5.797 0.600,7.925 2.036,9.390 L11.977,20.001 L21.918,9.390 C23.354,7.925 23.354,5.550 21.918,4.085 C20.482,2.620 17.154,1.620 15.718,3.085 Z"/>
</svg>
